dist/svg/u1F45D.svg

<?xml version="1.0" encoding="UTF-8"?><svg id="a" xmlns="http://www.w3.org/2000/svg" viewBox="0 0 40 40"><g><path d="M10.803,6.972H29.197c4.306,0,7.803,3.496,7.803,7.803v14.241c0,2.911-2.363,5.274-5.274,5.274H8.274c-2.911,0-5.274-2.363-5.274-5.274V14.775c0-4.306,3.496-7.803,7.803-7.803Z" fill="#7d9dff"/><path d="M28.699,5.71h1.031c.547,0,.992,.444,.992,.992v1.74h-3.015v-1.74c0-.547,.444-.992,.992-.992Z" fill="#466cfb"/><path d="M30.217,15.885h-2.006c-.548,0-.981-.464-.944-1.011l.44-6.432h3.015l.44,6.432c.037,.547-.396,1.011-.944,1.011Z" fill="#ccd7ff"/><path d="M8.274,33.985H31.726c2.913,0,5.274-2.361,5.274-5.274v-6.663H3v6.663c0,2.913,2.361,5.274,5.274,5.274Z" fill="#466cfb"/></g><rect width="40" height="40" fill="none"/></svg>

<svg id="Layer_1" data-name="Layer 1" xmlns="http://www.w3.org/2000/svg" viewBox="0 0 40 40"><defs><style>.cls-1{fill:#7d9dff;}.cls-2{fill:#466cfb;}.cls-3{fill:#ccd7ff;}.cls-4{fill:none;}</style></defs><path class="cls-1" d="M10.8,6.972H29.2a7.8,7.8,0,0,1,7.8,7.8V29.016a5.274,5.274,0,0,1-5.274,5.274H8.274A5.274,5.274,0,0,1,3,29.016V14.775a7.8,7.8,0,0,1,7.8-7.8Z"/><path class="cls-2" d="M28.7,5.71H29.73a.992.992,0,0,1,.992.992v1.74a0,0,0,0,1,0,0H27.707a0,0,0,0,1,0,0V6.7A.992.992,0,0,1,28.7,5.71Z"/><path class="cls-3" d="M30.217,15.885H28.211a.946.946,0,0,1-.944-1.011l.44-6.432h3.015l.439,6.432A.946.946,0,0,1,30.217,15.885Z"/><path class="cls-2" d="M8.274,33.985H31.726A5.275,5.275,0,0,0,37,28.71V22.047H3V28.71A5.275,5.275,0,0,0,8.274,33.985Z"/><rect class="cls-4" width="40" height="40"/></svg>
